;FLAVOR:Marlin
;TIME:2333
;Filament used: 1.89676m
;Layer height: 0.3
;MINX:2.14748e+06
;MINY:2.14748e+06
;MINZ:2.14748e+06
;MAXX:-2.14748e+06
;MAXY:-2.14748e+06
;MAXZ:-2.14748e+06

;Generated with Cura_SteamEngine 5.3.0
M140 S60
M105
M190 S60
M104 S200
M105
M109 S200
M82 ;absolute extrusion mode

G28 ;Home

G92 E0 ;Reset Extruder
G1 Z2.0 F3000 ;Move Z Axis up
G1 X10.1 Y20 Z0.28 F5000.0 ;Move to start position
G1 X10.1 Y200.0 Z0.28 F1500.0 E15 ;Draw the first line
G1 X10.4 Y200.0 Z0.28 F5000.0 ;Move to side a little
G1 X10.4 Y20 Z0.28 F1500.0 E30 ;Draw the second line
G92 E0 ;Reset Extruder
G1 Z2.0 F3000 ;Move Z Axis up

G92 E0
G92 E0
G1 F1500 E-5
;LAYER_COUNT:21
;LAYER:0
M107
G0 F6000 X71.777 Y76.364 Z0.2
;TYPE:SKIRT
G1 F1500 E0
G1 F1200 X72.959 Y75.363 E0.05152
G1 X74.303 Y74.483 E0.10495
G1 X75.329 Y73.946 E0.14346
G1 X76.268 Y73.546 E0.17741
G1 X76.753 Y73.364 E0.19464
G1 X77.612 Y73.085 E0.22468
G1 X78.337 Y72.902 E0.24955
G1 X79.475 Y72.695 E0.28802
G1 X80.591 Y72.585 E0.32532
G1 X81.8 Y72.55 E0.36555
G1 X103.925 Y72.55 E1.10143
G1 X106.26 Y72.595 E1.17911
G1 X107.715 Y72.651 E1.22753
G1 X110.217 Y72.68 E1.31076
G1 X112.791 Y72.636 E1.39638
G1 X113.853 Y72.59 E1.43174
G1 X115.4 Y72.55 E1.48321
G1 X137.989 Y72.551 E2.23452
G1 X138.828 Y72.563 E2.26243
G1 X139.609 Y72.599 E2.28843
G1 X140.927 Y72.754 E2.33257
G1 X142.042 Y72.993 E2.3705
G1 X143.208 Y73.343 E2.41099
G1 X144.515 Y73.87 E2.45786
G1 X145.7 Y74.485 E2.50227
G1 X146.737 Y75.149 E2.54322
G1 X147.425 Y75.68 E2.57213
G1 X148.403 Y76.541 E2.61547
G1 X148.802 Y76.94 E2.63423
G1 X149.412 Y77.606 E2.66427
G1 X149.78 Y78.072 E2.68402
G1 X150.094 Y78.495 E2.70154
G1 X150.6 Y79.244 E2.73161
G1 X150.877 Y79.724 E2.75004
G1 X151.15 Y80.229 E2.76913
G1 X151.598 Y81.154 E2.80332
G1 X151.954 Y82.103 E2.83703
G1 X152.233 Y82.962 E2.86707
G1 X152.435 Y83.798 E2.89567
G1 X152.605 Y84.786 E2.92902
G1 X152.715 Y85.891 E2.96595
G1 X152.75 Y87.099 E3.00615
G1 X152.749 Y132.689 E4.52248
G1 X152.737 Y133.528 E4.55038
G1 X152.705 Y134.256 E4.57462
G1 X152.549 Y135.609 E4.61992
G1 X152.31 Y136.726 E4.65791
G1 X151.965 Y137.887 E4.6982
G1 X151.435 Y139.203 E4.74538
G1 X150.818 Y140.396 E4.79006
G1 X150.145 Y141.447 E4.83156
G1 X149.57 Y142.189 E4.86279
G1 X148.985 Y142.878 E4.89285
G1 X148.393 Y143.482 E4.92098
G1 X147.404 Y144.337 E4.96446
G1 X146.973 Y144.668 E4.98254
G1 X145.728 Y145.498 E5.0323
G1 X144.684 Y146.048 E5.07155
G1 X143.72 Y146.459 E5.10641
G1 X143.233 Y146.641 E5.1237
G1 X142.374 Y146.919 E5.15373
G1 X141.519 Y147.123 E5.18296
G1 X140.528 Y147.304 E5.21647
G1 X139.409 Y147.415 E5.25387
G1 X138.2 Y147.45 E5.2941
G1 X115.609 Y147.449 E6.04548
G1 X114.323 Y147.427 E6.08826
G1 X112.61 Y147.359 E6.14528
G1 X110.038 Y147.321 E6.23083
G1 X107.508 Y147.355 E6.31499
G1 X106.37 Y147.404 E6.35287
G1 X104.6 Y147.45 E6.41176
G1 X81.831 Y147.445 E7.16906
G1 X81.12 Y147.435 E7.19271
G1 X80.316 Y147.396 E7.21948
G1 X79.209 Y147.265 E7.25656
G1 X77.837 Y146.976 E7.30319
G1 X76.721 Y146.632 E7.34204
G1 X75.629 Y146.195 E7.38116
G1 X74.403 Y145.573 E7.42688
G1 X73.421 Y144.956 E7.46545
G1 X72.992 Y144.642 E7.48314
G1 X72.575 Y144.32 E7.50066
G1 X71.597 Y143.459 E7.544
G1 X71.198 Y143.06 E7.56277
G1 X70.588 Y142.394 E7.5928
G1 X70.02 Y141.673 E7.62333
G1 X69.197 Y140.418 E7.67325
G1 X68.652 Y139.384 E7.71212
G1 X68.241 Y138.42 E7.74698
G1 X68.059 Y137.933 E7.76427
G1 X67.781 Y137.074 E7.7943
G1 X67.577 Y136.224 E7.82337
G1 X67.394 Y135.212 E7.85758
G1 X67.285 Y134.108 E7.89448
G1 X67.25 Y132.901 E7.93464
G1 X67.255 Y87.09 E9.45832
G1 X67.269 Y86.265 E9.48576
G1 X67.325 Y85.364 E9.51579
G1 X67.398 Y84.817 E9.53414
G1 X67.487 Y84.264 E9.55277
G1 X67.714 Y83.18 E9.58961
G1 X68.066 Y82.026 E9.62974
G1 X68.505 Y80.929 E9.66904
G1 X69.127 Y79.703 E9.71476
G1 X69.744 Y78.721 E9.75333
G1 X70.061 Y78.288 E9.77118
G1 X70.422 Y77.821 E9.79081
G1 X71.005 Y77.131 E9.82086
G1 X71.411 Y76.717 E9.84014
G1 X71.777 Y76.364 E9.85706
G0 F6000 X71.499 Y76.076
G1 F1200 X72.544 Y75.192 E9.90258
G1 X72.954 Y74.888 E9.91956
G1 X74.109 Y74.133 E9.96545
G1 X75.166 Y73.581 E10.00511
G1 X76.127 Y73.172 E10.03985
G1 X76.629 Y72.984 E10.05768
G1 X77.514 Y72.697 E10.08863
G1 X78.268 Y72.508 E10.11448
G1 X79.412 Y72.3 E10.15315
G1 X80.579 Y72.185 E10.19216
G1 X81.788 Y72.15 E10.23238
G1 X103.933 Y72.15 E10.96893
G1 X106.275 Y72.195 E11.04684
G1 X107.73 Y72.251 E11.09527
G1 X110.215 Y72.28 E11.17793
G1 X112.774 Y72.236 E11.26305
G1 X113.843 Y72.19 E11.29864
G1 X115.4 Y72.15 E11.35044
G1 X137.995 Y72.151 E12.10195
G1 X138.846 Y72.163 E12.13026
G1 X139.627 Y72.199 E12.15627
G1 X141.002 Y72.361 E12.20231
G1 X142.157 Y72.61 E12.24161
G1 X143.342 Y72.967 E12.28278
G1 X144.688 Y73.509 E12.33104
G1 X145.911 Y74.145 E12.37689
G1 X146.966 Y74.82 E12.41854
G1 X147.669 Y75.363 E12.44809
G1 X148.686 Y76.258 E12.49315
G1 X149.097 Y76.67 E12.5125
G1 X149.726 Y77.358 E12.54351
G1 X150.101 Y77.834 E12.56366
G1 X150.425 Y78.271 E12.58175
G1 X150.946 Y79.044 E12.61276
G1 X151.229 Y79.534 E12.63158
G1 X151.51 Y80.055 E12.65127
G1 X151.915 Y80.893 E12.68222
G1 X152.103 Y81.36 E12.69897
G1 X152.334 Y81.979 E12.72094
G1 X152.622 Y82.868 E12.75202
G1 X152.827 Y83.719 E12.78114
G1 X153.002 Y84.737 E12.81549
G1 X153.115 Y85.88 E12.8537
G1 X153.15 Y87.099 E12.89426
G1 X153.149 Y132.695 E14.41079
G1 X153.137 Y133.546 E14.43909
G1 X153.105 Y134.274 E14.46333
G1 X152.943 Y135.68 E14.5104
G1 X152.701 Y136.81 E14.54884
G1 X152.341 Y138.022 E14.59089
G1 X151.796 Y139.375 E14.63941
G1 X151.158 Y140.607 E14.68555
G1 X150.55 Y141.557 E14.72306
G1 X150.248 Y141.967 E14.74
G1 X149.875 Y142.448 E14.76025
G1 X149.271 Y143.158 E14.79125
G1 X148.653 Y143.787 E14.82058
G1 X147.666 Y144.64 E14.86397
G1 X147.195 Y145.001 E14.8837
G1 X145.927 Y145.846 E14.93438
G1 X144.854 Y146.411 E14.97472
G1 X143.86 Y146.834 E15.01065
G1 X143.356 Y147.022 E15.02854
G1 X142.497 Y147.3 E15.05857
G1 X141.591 Y147.516 E15.08955
G1 X140.576 Y147.702 E15.12387
G1 X139.42 Y147.815 E15.1625
G1 X138.2 Y147.85 E15.20309
G1 X115.602 Y147.849 E15.95471
G1 X114.307 Y147.827 E15.99778
G1 X112.594 Y147.759 E16.0548
G1 X110.037 Y147.721 E16.13986
G1 X107.525 Y147.755 E16.22342
G1 X106.38 Y147.804 E16.26153
G1 X104.6 Y147.85 E16.32076
G1 X81.825 Y147.845 E17.07826
G1 X81.101 Y147.835 E17.10234
G1 X80.297 Y147.796 E17.12911
G1 X79.147 Y147.66 E17.16763
G1 X77.737 Y147.364 E17.21555
G1 X76.581 Y147.007 E17.25579
G1 X75.454 Y146.554 E17.29619
G1 X74.418 Y146.029 E17.33482
G1 X73.972 Y145.775 E17.35189
G1 X73.208 Y145.295 E17.3819
G1 X72.748 Y144.959 E17.40084
G1 X72.331 Y144.637 E17.41837
G1 X71.314 Y143.742 E17.46342
G1 X70.903 Y143.33 E17.48278
G1 X70.274 Y142.642 E17.51379
G1 X69.899 Y142.165 E17.53397
G1 X69.598 Y141.758 E17.5508
G1 X68.849 Y140.618 E17.59617
G1 X68.289 Y139.554 E17.63616
G1 X67.866 Y138.56 E17.67209
G1 X67.678 Y138.056 E17.68998
G1 X67.4 Y137.197 E17.72001
G1 X67.209 Y136.438 E17.74604
G1 X66.996 Y135.259 E17.78589
G1 X66.885 Y134.119 E17.82399
G1 X66.85 Y132.901 E17.86452
G1 X66.855 Y87.083 E19.38843
G1 X66.87 Y86.24 E19.41647
G1 X66.926 Y85.339 E19.4465
G1 X67.003 Y84.753 E19.46615
G1 X67.095 Y84.182 E19.48539
G1 X67.325 Y83.08 E19.52283
G1 X67.686 Y81.9 E19.56388
G1 X68.145 Y80.755 E19.6049
G1 X68.671 Y79.718 E19.64358
G1 X68.925 Y79.272 E19.66065
G1 X69.405 Y78.508 E19.69066
G1 X69.745 Y78.043 E19.70982
G1 X70.116 Y77.563 E19.73
G1 X70.719 Y76.851 E19.76103
G1 X71.133 Y76.429 E19.78069
G1 X71.499 Y76.076 E19.7976
G0 F6000 X71.221 Y75.788
G1 F1200 X72.306 Y74.871 E19.84485
G1 X72.735 Y74.553 E19.86261
G1 X73.907 Y73.788 E19.90916
G1 X74.995 Y73.219 E19.95
G1 X75.987 Y72.797 E19.98586
G1 X76.489 Y72.609 E20.00369
G1 X77.417 Y72.309 E20.03612
G1 X78.198 Y72.113 E20.06291
G1 X79.352 Y71.904 E20.10191
G1 X80.566 Y71.785 E20.14248
G1 X81.776 Y71.75 E20.18275
G1 X103.941 Y71.75 E20.91996
G1 X106.29 Y71.795 E20.9981
G1 X107.745 Y71.851 E21.04653
G1 X110.213 Y71.88 E21.12862
G1 X112.757 Y71.836 E21.21325
G1 X113.833 Y71.79 E21.24907
G1 X115.4 Y71.75 E21.3012
G1 X138.001 Y71.751 E22.05291
G1 X138.864 Y71.763 E22.08162
G1 X139.645 Y71.799 E22.10762
G1 X141.076 Y71.967 E22.15555
G1 X142.272 Y72.227 E22.19626
G1 X143.229 Y72.515 E22.2295
G1 X143.701 Y72.68 E22.24613
G1 X144.86 Y73.147 E22.28769
G1 X146.112 Y73.798 E22.33462
G1 X147.074 Y74.414 E22.37261
G1 X147.496 Y74.724 E22.39003
G1 X147.913 Y75.046 E22.40755
G1 X148.969 Y75.976 E22.45435
G1 X149.392 Y76.4 E22.47427
G1 X150.04 Y77.11 E22.50625
G1 X150.422 Y77.596 E22.52681
G1 X150.757 Y78.047 E22.54549
G1 X151.278 Y78.82 E22.5765
G1 X151.581 Y79.344 E22.59663
G1 X151.87 Y79.881 E22.61691
G1 X152.286 Y80.744 E22.64878
G1 X152.478 Y81.22 E22.66585
G1 X152.715 Y81.856 E22.68842
G1 X153.003 Y82.745 E22.7195
G1 X153.218 Y83.637 E22.75002
G1 X153.399 Y84.688 E22.78549
G1 X153.515 Y85.869 E22.82496
G1 X153.55 Y87.099 E22.86589
G1 X153.549 Y132.701 E24.38262
G1 X153.537 Y133.564 E24.41132
G1 X153.505 Y134.292 E24.43556
G1 X153.337 Y135.752 E24.48444
G1 X153.092 Y136.894 E24.52329
G1 X152.794 Y137.901 E24.55822
G1 X152.626 Y138.385 E24.57526
G1 X152.157 Y139.548 E24.61696
G1 X151.498 Y140.819 E24.66458
G1 X150.887 Y141.773 E24.70226
G1 X150.564 Y142.212 E24.72039
G1 X150.18 Y142.707 E24.74123
G1 X149.576 Y143.417 E24.77223
G1 X148.919 Y144.087 E24.80344
G1 X147.928 Y144.943 E24.847
G1 X147.417 Y145.334 E24.8684
G1 X146.132 Y146.19 E24.91975
G1 X145.019 Y146.775 E24.96157
G1 X144 Y147.209 E24.99841
G1 X143.479 Y147.403 E25.0169
G1 X142.62 Y147.681 E25.04693
G1 X141.663 Y147.909 E25.07965
G1 X140.624 Y148.099 E25.11478
G1 X139.433 Y148.215 E25.15458
G1 X138.2 Y148.25 E25.19561
G1 X115.595 Y148.249 E25.94745
G1 X114.291 Y148.227 E25.99083
G1 X112.578 Y148.159 E26.04785
G1 X110.036 Y148.121 E26.13241
G1 X107.542 Y148.155 E26.21536
G1 X106.39 Y148.204 E26.25371
G1 X104.6 Y148.25 E26.31327
G1 X81.819 Y148.245 E27.07097
G1 X81.082 Y148.235 E27.09548
G1 X80.278 Y148.196 E27.12226
G1 X79.365 Y148.088 E27.15283
G1 X78.856 Y148.007 E27.16998
G1 X77.63 Y147.749 E27.21165
G1 X76.447 Y147.384 E27.25282
G1 X75.279 Y146.914 E27.2947
G1 X74.22 Y146.377 E27.33419
G1 X73.759 Y146.114 E27.35184
G1 X72.995 Y145.634 E27.38185
G1 X72.504 Y145.276 E27.40206
G1 X72.087 Y144.954 E27.41959
G1 X71.031 Y144.024 E27.46639
G1 X70.608 Y143.6 E27.48631
G1 X69.979 Y142.912 E27.51731
G1 X69.577 Y142.403 E27.53889
G1 X69.276 Y141.996 E27.55572
G1 X68.5 Y140.813 E27.60278
G1 X67.925 Y139.719 E27.64389
G1 X67.491 Y138.7 E27.68072
G1 X67.297 Y138.179 E27.69921
G1 X67.019 Y137.32 E27.72924
G1 X66.816 Y136.515 E27.75686
G1 X66.6 Y135.317 E27.79734
G1 X66.485 Y134.132 E27.83694
G1 X66.45 Y132.901 E27.8779
G1 X66.455 Y87.076 E29.40205
G1 X66.471 Y86.215 E29.43069
G1 X66.529 Y85.287 E29.46162
G1 X66.608 Y84.689 E29.48168
G1 X66.703 Y84.1 E29.50152
G1 X66.937 Y82.979 E29.53961
G1 X67.31 Y81.763 E29.58191
G1 X67.785 Y80.579 E29.62435
G1 X68.323 Y79.52 E29.66385
G1 X68.586 Y79.059 E29.68151
G1 X69.066 Y78.295 E29.71151
G1 X69.429 Y77.798 E29.73198
G1 X69.811 Y77.304 E29.75275
G1 X70.433 Y76.571 E29.78473
G1 X70.855 Y76.141 E29.80477
G1 X71.221 Y75.788 E29.82168
G1 F1500 E24.82168
;MESH:/var/www/files/17049475.stl
G0 F6000 X83.529 Y86.806
G0 X85.2 Y89.992
;TYPE:WALL-INNER
G1 F1500 E29.82168
G1 F905.7 X85.2 Y93.688 E29.98456
G1 F1030 X84.899 Y94.109 E30.00462
G1 F1200 X84.612 Y94.23 E30.01497
G1 X84.115 Y94.23 E30.0315
G1 X83.796 Y94.071 E30.04336
G1 X83.657 Y93.881 E30.05119
G1 X83.603 Y93.708 E30.05722
G1 X83.603 Y89.881 E30.1845
G1 X83.66 Y89.624 E30.19326
G1 X83.759 Y89.475 E30.19921
G1 F1173.6 X84.344 Y89.274 E30.22025
G1 F1124.1 X84.732 Y89.405 E30.23479
G1 F1098.4 X85.027 Y89.614 E30.24792
G1 F1059.6 X85.129 Y89.763 E30.25472
G1 F963.9 X85.2 Y89.992 E30.26465
G1 X85.271 Y89.763 E30.27458
G1 F1059.6 X85.373 Y89.614 E30.28138
G1 F1098.4 X85.668 Y89.405 E30.29452
G1 F1124.1 X86.052 Y89.277 E30.30889
G1 F1173.6 X86.593 Y89.429 E30.328
G1 F1200 X86.719 Y89.583 E30.33462
G1 X86.797 Y89.881 E30.34486
G1 X86.797 Y93.73 E30.47288
G1 X86.723 Y93.92 E30.47966
G1 X86.597 Y94.079 E30.48641
G1 X86.303 Y94.23 E30.49741
G1 X85.788 Y94.23 E30.51453
G1 X85.501 Y94.109 E30.52489
G1 F1030 X85.2 Y93.688 E30.54495
G0 F6000 X85.431 Y89.704
G0 X86.594 Y89.025
G0 X86.559 Y89.024
G1 F1173.6 X86.047 Y89.263 E30.56416
G1 F1148.3 X84.343 Y89.262 E30.62339
G1 F1173.6 X83.802 Y88.969 E30.64431
G1 F1200 X83.709 Y88.702 E30.65372
G1 X83.707 Y86.815 E30.71648
G1 X83.748 Y86.633 E30.72268
G1 X83.856 Y86.458 E30.72952
G1 X84.048 Y86.313 E30.73752
G1 X84.227 Y86.256 E30.74377
G1 X86.094 Y86.257 E30.80587
G1 X86.324 Y86.303 E30.81367
G1 X86.507 Y86.422 E30.82093
G1 X86.623 Y86.574 E30.82729
G1 X86.693 Y86.762 E30.83396
G1 X86.692 Y88.702 E30.89849
G1 X86.658 Y88.851 E30.90357
G1 X86.559 Y89.024 E30.9102
G1 F1500 E25.9102
G0 F6000 X86.594 Y89.025
G0 X83.879 Y89.071
G0 X83.546 Y88.642
G0 X88.848 Y97.615
G0 X86.542 Y103.515
G1 F1500 E30.9102
G1 F1348.3 X86.471 Y103.584 E30.91313
G0 F6000 X85.994 Y104.175
G0 X86.498 Y108.171
G0 X90.235 Y108.284
G1 F1200 X90.043 Y108.34 E30.91978
G1 X86.926 Y108.344 E31.02346
G1 X86.703 Y108.301 E31.03101
G1 X86.566 Y108.224 E31.03624
G1 X86.422 Y108.071 E31.04322
G1 X86.326 Y107.743 E31.05459
G1 X86.326 Y103.945 E31.18091
G1 F1263.2 X86.471 Y103.584 E31.19321
G1 X86.176 Y103.878 E31.20637
G1 F1200 X82.259 Y107.369 E31.38088
G1 X82.048 Y107.49 E31.38897
G1 X81.605 Y107.636 E31.40448
G1 X81.022 Y107.576 E31.42397
G1 X80.599 Y107.316 E31.44049
G1 X80.434 Y107.165 E31.44793
G1 X80.227 Y106.838 E31.4608
G1 X80.097 Y106.449 E31.47444
G1 X80.139 Y105.985 E31.48994
G1 X80.226 Y105.73 E31.4989
G1 X80.46 Y105.353 E31.51366
G1 X95.03 Y92.376 E32.1626
G1 X95.337 Y92.219 E32.17407
G1 X95.817 Y92.119 E32.19038
G1 X96.353 Y92.227 E32.20856
G1 X96.693 Y92.459 E32.22225
G1 X96.953 Y92.751 E32.23526
G1 X97.115 Y93.115 E32.24851
G1 X97.153 Y93.325 E32.25561
G1 X97.145 Y93.809 E32.27171
G1 X96.85 Y94.366 E32.29267
G1 X86.888 Y103.244 E32.73649
G1 F1276.6 X86.542 Y103.515 E32.75023
G1 X86.926 Y103.345 E32.76336
G1 F1200 X89.974 Y103.344 E32.86474
G1 X90.208 Y103.39 E32.87267
G1 X90.469 Y103.602 E32.88386
G1 X90.575 Y103.873 E32.89353
G1 X90.572 Y107.796 E33.02401
G1 X90.535 Y107.958 E33.02954
G1 X90.445 Y108.116 E33.03559
G1 X90.235 Y108.284 E33.04453
G1 F1500 E28.04453
G0 F6000 X90.756 Y103.853
G0 X97.872 Y102.298
G0 X98.88 Y102.317
G1 F1500 E33.04453
G1 F1200 X98.498 Y102.317 E33.05724
G1 X98.265 Y102.268 E33.06516
G1 X97.942 Y102.131 E33.07683
G1 X97.712 Y101.958 E33.0864
G1 X97.49 Y101.686 E33.09808
G1 X97.376 Y101.46 E33.1065
G1 X97.272 Y101.072 E33.11986
G1 X97.327 Y100.568 E33.13672
G1 X97.655 Y100.037 E33.15748
G1 X104.16 Y94.247 E33.44713
G1 X104.555 Y94.048 E33.46184
G1 X105.03 Y93.989 E33.47776
G1 X105.465 Y94.108 E33.49276
G1 X105.664 Y94.206 E33.50013
G1 X105.964 Y94.46 E33.51321
G1 X106.173 Y94.791 E33.52623
G1 X106.302 Y95.178 E33.5398
G1 X106.266 Y95.653 E33.55564
G1 X106.19 Y95.856 E33.56285
G1 X105.941 Y96.274 E33.57903
G1 X99.387 Y102.112 E33.87096
G1 X98.88 Y102.317 E33.88915
G1 F1500 E28.88915
G0 F6000 X98.919 Y102.409
G0 X97.907 Y101.937
G0 X97.556 Y101.509
G0 X97.436 Y101.06
G0 X97.484 Y100.627
G0 X97.767 Y100.156
G0 X102.139 Y96.294
G0 X102.653 Y95.321
G0 X102.388 Y94.376
G0 X101.2 Y93.688
G1 F1500 E33.88915
G1 F905.7 X101.2 Y89.992 E34.05203
G0 F6000 X101.2 Y89.3
G0 X101.2 Y93.688
G1 F1030 X100.912 Y94.099 E34.07148
G1 F1200 X100.759 Y94.188 E34.07736
G1 X100.536 Y94.23 E34.08491
G1 X100.07 Y94.23 E34.10041
G1 X99.861 Y94.124 E34.1082
G1 X99.735 Y94.007 E34.11392
G1 X99.605 Y93.755 E34.12335
G1 X99.607 Y89.804 E34.25476
G1 X99.686 Y89.576 E34.26279
G1 X99.815 Y89.422 E34.26947
G1 X100.02 Y89.308 E34.27727
G1 X100.356 Y89.3 E34.28845
G1 F973.6 X100.423 Y89.223 E34.29264
G1 F819.1 X100.756 Y89.334 E34.30974
G1 X101.003 Y89.478 E34.32367
G1 F823.3 X101.142 Y89.659 E34.33473
G1 F866.4 X101.2 Y89.992 E34.3503
G1 X101.258 Y89.659 E34.36588
G1 F823.3 X101.397 Y89.478 E34.37694
G1 F819.1 X101.644 Y89.334 E34.39087
G1 X101.977 Y89.223 E34.40797
G1 F973.6 X102.044 Y89.3 E34.41216
G1 F1200 X102.38 Y89.309 E34.42334
G1 X102.585 Y89.422 E34.43112
